X:1
T:Title
%%score ( 1 2 ) { ( 3 5 ) | 4 }
L:1/8
Q:1/4=95
M:4/4
K:G
V:1 treble nm="Grand Piano, Soprano"
V:2 treble 
V:3 bass nm="Choir Pad, Sunshine, C. A. Miles, 1908"
V:5 bass 
V:4 bass 
V:1
 [B,D][B,D][B,D][DG]- [DG]/[FA]/ [GB]3 | [=FB][Ec][Ec][EG]- [EG]/[EA]/ [DB]3 | %2
w: By~Charles~Austin~Miles * * * * * *||
 [GB][GB][FA][=F^G] [^FA] [Fd]2 [FA]- | [FA] [GB]3- [GB]2- [GB]/ z/ z | %4
w: ||
 [B,D][B,D][B,D][DG]- [DG]/[FA]/ [GB]3 | [=FB][Ec][Ec][EG]- [EG]/[EA]/ [^DB]3 | %6
w: ||
 [^DB][EA][EA][GA] [GA][FA][FA][GB] | [G^c] [Fd]3- [Fd]2- [Fd]/ z/ [GB]- | %8
w: ||
 [GB][Gd]- [Gd]/[Gd]/[Ge] [Gd] [GB]3 | G[EA]- [EA]/[EG]/[EG] [CE][CE] [B,D]2 | %10
w: ||
 [B,D][DG]- [DG]/[DG]/[DG] [DA][GB][FA][DG] | [GB] [FA]2 [Fd]- [Fd] [Fd]3 | %12
w: ||
 [GB][Gd]- [Gd]/[Gd]/[Ge] [Gd] [GB]3 | G[EA]- [EA]/[EA]/[EG] [CE][CE] [B,D]2 | %14
w: ||
 (7:8:5B,3/4[DG]3/4[DG]/[DG] z/ [FA][GB][Gd][Gd]- | [Gd]/[Ac]/ [GB]2 [FA]- [FA] [DG]3- | %16
w: ||
 [DG]4 z4 |] %17
w: |
V:2
 x8 | x8 | x8 | x8 | x8 | x8 | x8 | x8 | x8 | x8 | x8 | x8 | x8 | x8 | .D2 z [DG] z4 | x8 | x8 |] %17
V:3
 G,G,G,B,- B,/[K:treble]C/ D3 | DCG,C- C/C/ B,3 | DDDD D A,2 D- | D[K:bass] B,3- B,2- B,/ z/ z | %4
 G,G,G,B,- B,/[K:treble]C/ D3 | DCG,[K:bass]G,- G,/E,/ F,3 | F,A,A,A, A,A,DD | %7
 A, A,3- A,2- A,/ z/ G,- | G,B,- B,/B,/[K:treble]C B, D3 | B,C- C/C/C[K:bass] G,G, G,2 | %10
 G,B,- B,/B,/B,[K:treble] CDCB, | D D2 D- D D3 | D[K:bass]B,- B,/B,/C B,[K:treble] D3 | %13
 B,C- C/C/C[K:bass] G,G, G,2 | (7:8:5G,3/4B,3/4B,/B, z/ DDB,B,- | B,/[K:treble]E/ D2 C- C B,3- | %16
 B,4 z4 |] %17
V:4
 z2 z G,- G,/G,/ G,3 | G,C,C,C,- C,/C,/ G,3 | G,D,D,D, D, D,2 D,- | D, G,3- G,2- G,/ z/ z | %4
 z2 z G,- G,/G,/ G,3 | G,C,C,C,- C,/C,/ B,,3 | B,,C,C,^C, C,D,D,G, | E, D,3- D,2- D,/ z/ z | %8
 z G,- G,/G,/G, G, G,3 | G,C,- C,/C,/C, .E,2 z2 | z G,- G,/G,/G, G,G,G,G, | G, D,2 D,- D, D,3 | %12
 G,G,- G,/G,/G, G, G,3 | G,C,- C,/C,/C, .E,2 z2 | z G,/G,/- G,/G,/G, D,G,G,G,- | %15
 G,/C,/ D,2 D,- D, G,3- | G,4 z4 |] %17
V:5
 x9/2[K:treble] x7/2 | x8 | x8 | x[K:bass] x7 | x9/2[K:treble] x7/2 | x3[K:bass] x5 | x8 | x8 | %8
 x3[K:treble] x5 | x4[K:bass] x4 | x4[K:treble] x4 | x8 | x[K:bass] x4[K:treble] x3 | %13
 x4[K:bass] x4 | z2 z B, z4 | x/[K:treble] x15/2 | x8 |] %17

